assets/svg/1F61F.svg

<svg xmlns="http://www.w3.org/2000/svg" viewBox="0 0 64 64" enable-background="new 0 0 64 64"><path fill="#fbb041" d="M63.792,31.899c0,17.614-14.282,31.896-31.9,31.896S0,49.513,0,31.899C0,14.279,14.273,0,31.892,0     S63.792,14.279,63.792,31.899z"/><g fill="#fff"><path d="m27.29 23.11c0 5.367-2.9 9.708-6.481 9.708-3.585 0-6.485-4.342-6.485-9.708 0-5.362 2.9-9.708 6.485-9.708 3.582.0001 6.481 4.347 6.481 9.708"/><path d="m49.23 23.11c0 5.367-2.899 9.708-6.48 9.708-3.582 0-6.485-4.342-6.485-9.708 0-5.362 2.903-9.708 6.485-9.708 3.581.0001 6.48 4.347 6.48 9.708"/></g><g fill="#25333a"><ellipse cx="20.812" cy="23.11" rx="4.194" ry="5.087"/><path d="m46.941 23.11c0 2.81-1.875 5.087-4.191 5.087-2.319 0-4.2-2.277-4.2-5.087 0-2.809 1.881-5.086 4.2-5.086 2.316 0 4.191 2.277 4.191 5.086"/></g><g opacity=".987"><path fill="#e79d3c" d="m15.18 41.15c-5.654-12.13-5.906-25.18-.796-35.973-8.659 5.702-14.384 15.5-14.384 26.647 0 17.619 14.273 31.896 31.892 31.896.319 0 .625-.04.938-.048-7.312-6.153-13.475-13.56-17.65-22.522"/></g><g fill="#633d19"><path d="m22 4.765c-3.908 4.168-8.297 7.367-13.568 9.601-1.202.51-.272 2.301.918 1.796 5.425-2.299 9.975-5.606 13.998-9.896.884-.941-.459-2.447-1.348-1.501"/><path d="m8.937 17.01l0 0c-.843 0-1.607-.646-1.781-1.503-.161-.794.225-1.515.985-1.836 4.999-2.118 9.353-5.201 13.312-9.422.825-.878 2.309-.53 2.789.579.292.674.162 1.422-.338 1.956-4.223 4.505-8.884 7.799-14.254 10.08-.232.098-.472.15-.713.15m13.703-11.788c-4.19 4.44-8.711 7.639-13.907 9.841-.083.351.11.497.327.404 5.173-2.192 9.667-5.372 13.742-9.717.04-.043.132-.142.055-.319-.06-.136-.174-.209-.217-.209"/><path d="m41.786 4.765c3.908 4.168 8.297 7.367 13.568 9.601 1.202.51.272 2.301-.918 1.796-5.425-2.299-9.976-5.606-13.997-9.896-.884-.941.459-2.447 1.347-1.501"/><path d="m54.854 17.01c-.24 0-.48-.051-.713-.15-5.37-2.277-10.03-5.571-14.254-10.08-.501-.534-.631-1.282-.339-1.956.48-1.109 1.962-1.459 2.789-.579 3.959 4.221 8.312 7.304 13.312 9.422.76.321 1.146 1.042.984 1.836-.171.856-.936 1.503-1.779 1.503m-13.709-11.749c-.089 0-.166.067-.209.169-.077.177.016.276.055.319 4.076 4.346 8.569 7.525 13.742 9.717l.122.029c.142 0 .271-.153.299-.292-5.291-2.344-9.812-5.543-13.919-9.922-.032-.011-.061-.02-.09-.02"/><path d="m17.754 47.4c-.843.961-.323 2.572 1.067 2.572 1.604 0 7.363-2.431 13.08-2.431 6.394 0 12.725 2.431 13.08 2.431 1.389 0 1.898-1.611 1.073-2.572-7.661-8.836-20.641-8.836-28.29 0"/></g></svg>

<?xml version="1.0" encoding="UTF-8" standalone="no"?>
<!-- Generator: Adobe Illustrator 16.0.0, SVG Export Plug-In . SVG Version: 6.00 Build 0)  -->

<svg
   xmlns:dc="http://purl.org/dc/elements/1.1/"
   xmlns:cc="http://creativecommons.org/ns#"
   xmlns:rdf="http://www.w3.org/1999/02/22-rdf-syntax-ns#"
   xmlns:svg="http://www.w3.org/2000/svg"
   xmlns="http://www.w3.org/2000/svg"
   xmlns:sodipodi="http://sodipodi.sourceforge.net/DTD/sodipodi-0.dtd"
   xmlns:inkscape="http://www.inkscape.org/namespaces/inkscape"
   version="1.1"
   id="Layer_1"
   x="0px"
   y="0px"
   width="64px"
   height="64px"
   viewBox="0 0 64 64"
   enable-background="new 0 0 64 64"
   xml:space="preserve"
   inkscape:version="0.48.5 r10040"
   sodipodi:docname="1F61F.svg"
   inkscape:export-filename="D:\TESTINGEMOJI\SVGTEST\1F61F.png"
   inkscape:export-xdpi="90"
   inkscape:export-ydpi="90"><metadata
   id="metadata4307"><rdf:RDF><cc:Work
       rdf:about=""><dc:format>image/svg+xml</dc:format><dc:type
         rdf:resource="http://purl.org/dc/dcmitype/StillImage" /><dc:title></dc:title></cc:Work></rdf:RDF></metadata><defs
   id="defs4305" /><sodipodi:namedview
   pagecolor="#ffffff"
   bordercolor="#666666"
   borderopacity="1"
   objecttolerance="10"
   gridtolerance="10"
   guidetolerance="10"
   inkscape:pageopacity="0"
   inkscape:pageshadow="2"
   inkscape:window-width="640"
   inkscape:window-height="480"
   id="namedview4303"
   showgrid="false"
   inkscape:zoom="3.6875"
   inkscape:cx="32"
   inkscape:cy="32"
   inkscape:window-x="456"
   inkscape:window-y="324"
   inkscape:window-maximized="0"
   inkscape:current-layer="Layer_1" />
<g
   id="g4237">
	<g
   id="g4239">
		<g
   id="g4241">
			<path
   fill="#FBB041"
   d="M63.792,31.899c0,17.614-14.282,31.896-31.9,31.896S0,49.513,0,31.899C0,14.279,14.273,0,31.892,0     S63.792,14.279,63.792,31.899z"
   id="path4243" />
		</g>
	</g>
	<g
   id="g4245">
		<g
   id="g4247">
			<path
   fill="#FFFFFF"
   d="M27.294,23.108c0,5.367-2.9,9.708-6.481,9.708c-3.585,0-6.485-4.342-6.485-9.708     c0-5.362,2.9-9.708,6.485-9.708C24.395,13.401,27.294,17.747,27.294,23.108z"
   id="path4249" />
		</g>
	</g>
	<g
   id="g4251">
		<g
   id="g4253">
			<path
   fill="#FFFFFF"
   d="M49.23,23.108c0,5.367-2.899,9.708-6.48,9.708c-3.582,0-6.485-4.342-6.485-9.708     c0-5.362,2.903-9.708,6.485-9.708C46.331,13.401,49.23,17.747,49.23,23.108z"
   id="path4255" />
		</g>
	</g>
	<g
   id="g4257">
		<g
   id="g4259">
			<ellipse
   fill="#25333A"
   cx="20.812"
   cy="23.108"
   rx="4.194"
   ry="5.087"
   id="ellipse4261" />
		</g>
	</g>
	<g
   id="g4263">
		<g
   id="g4265">
			<path
   fill="#25333A"
   d="M46.941,23.108c0,2.81-1.875,5.087-4.191,5.087c-2.319,0-4.2-2.277-4.2-5.087     c0-2.809,1.881-5.086,4.2-5.086C45.066,18.022,46.941,20.299,46.941,23.108z"
   id="path4267" />
		</g>
	</g>
	<g
   opacity="0.9866"
   id="g4269">
		<g
   id="g4271">
			<g
   id="g4273">
				<path
   fill="#E79D3C"
   d="M15.18,41.146C9.526,29.019,9.274,15.964,14.384,5.173C5.725,10.875,0,20.673,0,31.82      c0,17.619,14.273,31.896,31.892,31.896c0.319,0,0.625-0.04,0.938-0.048C25.518,57.515,19.355,50.108,15.18,41.146z"
   id="path4275" />
			</g>
		</g>
	</g>
	<g
   id="g4277">
		<g
   id="g4279">
			<path
   fill="#633D19"
   d="M22.005,4.765c-3.908,4.168-8.297,7.367-13.568,9.601c-1.202,0.51-0.272,2.301,0.918,1.796     c5.425-2.299,9.975-5.606,13.998-9.896C24.237,5.325,22.894,3.819,22.005,4.765z"
   id="path4281" />
		</g>
		<g
   id="g4283">
			<path
   fill="#633D19"
   d="M8.937,17.01L8.937,17.01c-0.843,0-1.607-0.646-1.781-1.503c-0.161-0.794,0.225-1.515,0.985-1.836     c4.999-2.118,9.353-5.201,13.312-9.422c0.825-0.878,2.309-0.53,2.789,0.579c0.292,0.674,0.162,1.422-0.338,1.956     C19.681,11.289,15.02,14.583,9.65,16.86C9.418,16.958,9.178,17.01,8.937,17.01z M22.64,5.222     c-4.19,4.44-8.711,7.639-13.907,9.841c-0.083,0.351,0.11,0.497,0.327,0.404c5.173-2.192,9.667-5.372,13.742-9.717     c0.04-0.043,0.132-0.142,0.055-0.319C22.797,5.295,22.683,5.222,22.64,5.222z"
   id="path4285" />
		</g>
	</g>
	<g
   id="g4287">
		<g
   id="g4289">
			<path
   fill="#633D19"
   d="M41.786,4.765c3.908,4.168,8.297,7.367,13.568,9.601c1.202,0.51,0.272,2.301-0.918,1.796     c-5.425-2.299-9.976-5.606-13.997-9.896C39.555,5.325,40.898,3.819,41.786,4.765z"
   id="path4291" />
		</g>
		<g
   id="g4293">
			<path
   fill="#633D19"
   d="M54.854,17.01c-0.24,0-0.48-0.051-0.713-0.15c-5.37-2.277-10.031-5.571-14.254-10.076     c-0.501-0.534-0.631-1.282-0.339-1.956c0.48-1.109,1.962-1.459,2.789-0.579c3.959,4.221,8.312,7.304,13.312,9.422     c0.76,0.321,1.146,1.042,0.984,1.836C56.462,16.363,55.697,17.01,54.854,17.01z M41.145,5.261c-0.089,0-0.166,0.067-0.209,0.169     c-0.077,0.177,0.016,0.276,0.055,0.319c4.076,4.346,8.569,7.525,13.742,9.717l0.122,0.029c0.142,0,0.271-0.153,0.299-0.292     c-5.291-2.344-9.812-5.543-13.919-9.922C41.203,5.27,41.174,5.261,41.145,5.261z"
   id="path4295" />
		</g>
	</g>
	<g
   id="g4297">
		<g
   id="g4299">
			<path
   fill="#633D19"
   d="M17.754,47.397c-0.843,0.961-0.323,2.572,1.067,2.572c1.604,0,7.363-2.431,13.076-2.431     c6.394,0,12.725,2.431,13.076,2.431c1.389,0,1.898-1.611,1.073-2.572C38.385,38.561,25.405,38.561,17.754,47.397z"
   id="path4301" />
		</g>
	</g>
</g>
</svg>
